Resources/Icons/PCGEx_Editor_Z.svg

<?xml version="1.0" encoding="UTF-8"?>
<svg id="icons" xmlns="http://www.w3.org/2000/svg" viewBox="0 0 100 100">
  <defs>
    <style>
      .cls-1 {
        fill: #fff;
      }
    </style>
  </defs>
  <path d="M62.86,77.23h-23.58c-2.82,0-4.95-2.13-4.95-4.67,0-.9.62-2.34.96-3.03,6.74-11.14,12.65-20.63,19.46-31.9h-15.54c-2.68,0-4.74-1.93-4.74-4.4s2.06-4.47,4.74-4.47h23.31c2.88,0,5.02,2.06,5.02,4.61,0,1.24-.48,2.2-.96,2.96l-19.59,32.04h15.88c2.54,0,4.81,1.93,4.81,4.4s-2.2,4.47-4.81,4.47Z"/>
  <path class="cls-1" d="M60.86,74.23h-23.58c-2.82,0-4.95-2.13-4.95-4.67,0-.9.62-2.34.96-3.03,6.74-11.14,12.65-20.63,19.46-31.9h-15.54c-2.68,0-4.74-1.93-4.74-4.4s2.06-4.47,4.74-4.47h23.31c2.88,0,5.02,2.06,5.02,4.61,0,1.24-.48,2.2-.96,2.96l-19.59,32.04h15.88c2.54,0,4.81,1.93,4.81,4.4s-2.2,4.47-4.81,4.47Z"/>
</svg>

<svg id="icons" xmlns="http://www.w3.org/2000/svg" viewBox="0 0 100 100">
    <defs>
        <style>.cls-1{fill:#fff;}</style>
    </defs>
    <path d="M62.86,77.23H39.28a4.79,4.79,0,0,1-5-4.67,8.76,8.76,0,0,1,1-3C42,58.4,47.94,48.91,54.75,37.64H39.21a4.52,4.52,0,0,1-4.74-4.4,4.61,4.61,0,0,1,4.74-4.47H62.52a4.75,4.75,0,0,1,5,4.6,5.42,5.42,0,0,1-1,3L47,68.36H62.86a4.45,4.45,0,1,1,0,8.87Z"/>
    <path class="cls-1"
          d="M60.86,74.23H37.28a4.79,4.79,0,0,1-5-4.67,8.76,8.76,0,0,1,1-3C40,55.4,45.94,45.91,52.75,34.64H37.21a4.52,4.52,0,0,1-4.74-4.4,4.61,4.61,0,0,1,4.74-4.47H60.52a4.75,4.75,0,0,1,5,4.6,5.42,5.42,0,0,1-1,3L45,65.36H60.86a4.45,4.45,0,1,1,0,8.87Z"/>
</svg>
